!!!COM: Haydn, Franz Joseph
!!!OTL: String Quartet in E-flat Major
!!!OPS: Opus 64
!!!ONM: No. 6
!!!OMD: Finale: Presto
!!!OMV: 4
!!!SCT: H III:64
!!!SCA: Thematisch-bibliographisches Werkevererzeichnis (A. van Hoboken)
!!!YOR: Trautwein Edition
!!!ENC: Frances Bennion
!!!CDT: 1732/3/31/-1809/5/31/
!!!CNT: Oesterreich
!!!YEC: Copyright (c) 1994, 2000 Center for Computer Assisted Research in the Humanities
!!!YEM: Rights to all derivative editions reserved.
!!!YEM: Refer to licensing agreement for further details.
!!!YEN: United States of America
**kern	**kern	**kern	**kern
*k[b-e-a-]	*k[b-e-a-]	*k[b-e-a-]	*k[b-e-a-]
*E-:	*E-:	*E-:	*E-:
*clefF4	*clefC3	*clefF	*clefF
*M2/4	*M2/4	*M2/4	*M2/4
4.r	4.r	4.r	4.r
8r	8r	8r	16g
.	.	.	16a-
=1	=1	=1	=1
8E-	8e-	8g	8b-
8E-	8e-	8g	8b-
8E-	8e-	8g	8b-
8r	8r	8r	16a-
.	.	.	16b-
=2	=2	=2	=2
8E-	8e-	8a-	8cc
8E-	8e-	8a-	8cc
8E-	8e-	8a-	8cc
8r	8r	8r	16dd
.	.	.	16ee-
=3	=3	=3	=3
8E-	8B-	8A- 8d	8ff
8r	8r	8r	16ff
.	.	.	16gg
8E-	8B-	8d 8A-	8aa-
8r	8r	16g	16gg
.	.	16f	16aa-
=4	=4	=4	=4
4E-	4G	4e-	16bb-
.	.	.	16aa-
.	.	.	16gg
.	.	.	16ff
8r	8r	8r	8ee-
8B-	8b-	8b-	8b-
=5	=5	=5	=5
8A	8a	8a	8a
8A-	8a-	8a-	8a-
8G	8g	8g	8g
8G-	8g-	8g-	8g-
=6	=6	=6	=6
16F	16f	16f	16f
16E-	16e-	16e-	16e-
16D	16d	16d	16d
16E-	16e-	16e-	16e-
8F	8f	8f	8f
8G	8g	8g	8g
=7	=7	=7	=7
8F	8f	8f	8f
8E-	8e-	8e-	8e-
8D	8d	8d	8d
8C	8c	8c	8c
=8	=8	=8	=8
16BB-	16B-	16B-	16B-
16AA	16A	16A	16A
16BB-	16B-	16B-	16B-
16C	16c	16c	16c
8BB-	8B-	8B-	8B-
8r	8r	8r	16g
.	.	.	16a-
=9	=9	=9	=9
8EE-	8e-	8g	8b-
8EE-	8e-	8g	8b-
8EE-	8e-	8g	8b-
8r	8r	8r	16a-
.	.	.	16b-
=10	=10	=10	=10
8EE-	8e-	8a-	8cc
8EE-	8e-	8a-	8cc
8EE-	8e-	8a-	8cc
8r	8r	8r	16dd
.	.	.	16ee-
=11	=11	=11	=11
8EE-	8B-	8d 8A-	8ff
8r	8r	8r	16ff
.	.	.	16gg
8EE-	8B-	8A- 8d	8aa-
8r	8r	16g	16gg
.	.	16f	16aa-
=12	=12	=12	=12
4EE-	4G	4e-	16bb-
.	.	.	16aa-
.	.	.	16gg
.	.	.	16ff
4r	4r	4r	8ee-
.	.	.	16ee-
.	.	.	16ff
=13	=13	=13	=13
4E-	4G	4cc	16gg
.	.	.	16ff
.	.	.	16ee-
.	.	.	16dd
8r	8r	8r	8cc
8d	8f	8a-	8b
=14	=14	=14	=14
8e-	8g	8g	8cc
8d	8f	8a-	8b
8e-	8g	8g	8cc
16d	8r	16f	16dd
16c	.	16e-	16ee-
=15	=15	=15	=15
8B-	8F	8d	16ff
.	.	.	16gg
8r	8r	8r	16ff
.	.	.	16ee-
8F	8c	8a 8e-	16dd
.	.	.	16cc
8r	8r	8r	16b-
.	.	.	16a
=16	=16	=16	=16
4BB-	4B-	4b- 4d	4b-
4r	8r	8r	8r
.	16B-	16d	8bb-
.	16c	16e-	.
=17	=17	=17	=17
4.r	8d	8f	16aa-
.	.	.	16bb-
.	16d	16f	16aa-
.	16e-	16g	16gg
.	8f	8a-	8ff
16E-	16g	16b-	8ee-
16G	16e-	16g	.
=18	=18	=18	=18
4B-	4b-	16f	16dd
.	.	16g	16ee-
.	.	16f	16dd
.	.	16e-	16cc
4r	8r	8d	8b-
.	16B-	16d	8bb-
.	16c	16e-	.
=19	=19	=19	=19
4.r	8d	8f	16aa-
.	.	.	16bb-
.	16d	16f	16aa-
.	16e-	16g	16gg
.	8f	8a-	8ff
16E-	16g	16b-	8ee-
16G	16e-	16g	.
=20	=20	=20	=20
4B-	4b-	16f	16dd
.	.	16g	16ee-
.	.	16f	16dd
.	.	16e-	16cc
4r	4r	8d	8b-
.	.	8r	8ee-
=21	=21	=21	=21
2GG	[2E-	2B-	16e-
.	.	.	16f
.	.	.	16e-
.	.	.	16d
.	.	.	8e-
.	.	.	8dd-
=22	=22	=22	=22
4.AA-	4.E-]	4.c	16cc
.	.	.	16dd-
.	.	.	16cc
.	.	.	16b
.	.	.	8cc
8E	[8c	8g	8b-
=23	=23	=23	=23
8F	8c]	8f	8a
8D	4B-	8f	8a-
8E-	.	8e-	8g
8AA-	8A-	8e-	8cc
=24	=24	=24	=24
8BB-	4.B-	4g	4e-
4BB-	.	.	.
.	.	8f	8d
[8BB-	16f	8d	8b-
.	16d	.	.
=25	=25	=25	=25
8BB-]	8e-	2e-	16a
.	.	.	16b-
4BB-	4A	.	16cc
.	.	.	16dd
.	.	.	16ee-
.	.	.	16ff
[8BB-	16e-	.	16gg
.	16c	.	16aa
=26	=26	=26	=26
8BB-]	8B-	8d	8bb-
4BB-	8d	8f	8ff
.	8f	8b-	8ddd
[8BB-	8b-	8dd	8bb-
=27	=27	=27	=27
8BB-]	16cc	16ee-	8aa
.	16b-	16dd	.
4BB-	16a	16cc	8ccc
.	16g	16b-	.
.	16f	16a	8eee-
.	16e-	16g	.
[8BB-	16d	16f	8aa
.	16c	16e-	.
=28	=28	=28	=28
8BB-]	8B-	8d	16bb-
.	.	.	16ccc
4BB-	8d	8f	16bb-
.	.	.	16aa
.	8f	8b-	8bb-
[8BB-	8b-	8dd	8bb-
=29	=29	=29	=29
8BB-]	16cc	16ee-	8aa
.	16b-	16dd	.
4BB-	16a	16cc	8ccc
.	16g	16b-	.
.	16f	16a	8eee-
.	16e-	16g	.
[8BB-	16d	16f	8aa
.	16c	16e-	.
=30	=30	=30	=30
8BB-]	8B-	8d	16bb-
.	.	.	16ccc
4BB-	8d	8f	16bb-
.	.	.	16aa
.	8f	8b-	8bb-
[8BB-	8b-	8dd	8bb-
=31	=31	=31	=31
8BB-]	16cc	16ee-	8aa
.	16b-	16dd	.
4BB-	16a	16cc	8ccc
.	16g	16b-	.
.	16f	16a	8eee-
.	16e-	16g	.
[8BB-	16d	16f	8aa
.	16c	16e-	.
=32	=32	=32	=32
8BB-]	4B-	4d	[2bb-
8B-	.	.	.
8BB-	8r	4r	.
16EE-	16G	.	.
16FF	16A-	.	.
=33	=33	=33	=33
8GG	8B-	2r	2bb-_
8GG	8B-	.	.
8GG	8B-	.	.
16FF	16A-	.	.
16GG	16B-	.	.
=34	=34	=34	=34
8AA-	8c	2r	4bb-]
8AA-	8c	.	.
8AA-	8c	.	[4aa-
16BB-	16d	.	.
16C	16e-	.	.
=35	=35	=35	=35
8D	8f	2r	4aa-]
16D	16f	.	.
16E-	16g	.	.
8F	8a-	.	[4b-
16E-	16g	.	.
16F	16a-	.	.
=36	=36	=36	=36
16G	16b-	2r	16b-]
16F	16a-	.	16dd
16E-	16g	.	16ee-
16D	16f	.	16ff
8C	8e-	.	8gg
8E-	8g	.	8b-
=37	=37	=37	=37
16F	16a-	2r	16a-
16E-	16g	.	16cc
16D	16f	.	16dd
16C	16e-	.	16ee-
8BB-	8d	.	8ff
8D	8f	.	8a-
=38	=38	=38	=38
16E-	4g	4.r	16g
16C	.	.	16b-
16BB-	.	.	16cc
16AA-	.	.	16dd
8GG	8r	.	8ee-
8G	8E-	8B-	8g
=39	=39	=39	=39
8A-	8A-	8c	8f
8G	8B-	8d-	8e
8A-	8A-	8c	8f
8G	8B-	8d-	8e
=40	=40	=40	=40
4A-	4A-	4c	16f
.	.	.	16g
.	.	.	16a-
.	.	.	16b-
8r	4r	8r	8cc
8D	.	8a-	8cc
=41	=41	=41	=41
8E-	2r	8g	8b-
8E-	.	8e-	8g
8BB-	.	8f	8a-
8BB-	.	16e-	16g
.	.	16d	16f
=42	=42	=42	=42
4E-	8r	8e-	8e-
.	8d	8a-	8cc
4r	8e-	8g	8b-
.	8d	8a-	8cc
=43	=43	=43	=43
8r	4e-	8g	8b-
8E-	.	8g	16ee-
.	.	.	16b-
8B-	4r	16g	16b-
.	.	16f	16a-
8B-	.	16e-	16g
.	.	16f	16a-
=44	=44	=44	=44
4E-	8r	8e-	8g
.	8d	8a-	8cc
4r	8e-	8g	8b-
.	8d	8a-	8cc
=45	=45	=45	=45
8r	4e-	8g	8b-
8E-	.	8g	16ee-
.	.	.	16b-
8BB-	8r	16g	16b-
.	.	16f	16a-
8BB-	16B-	16e-	16g
.	16A-	16d	16f
=46	=46	=46	=46
4E-	4G	4e-	4e-
4r	4r	4r	4r
=47	=47	=47	=47
[2E-	4G	4.G 4.e-	4G 4e-
.	4g	.	8r
.	.	8b-	8bb-
=48	=48	=48	=48
2E-_	4a-	8cc-	4bb-
.	.	8cc	.
.	4f	8dd-	4aa-
.	.	8dd	.
=49	=49	=49	=49
4.E-]	4.g	4.ee-	16gg
.	.	.	16ff
.	.	.	16gg
.	.	.	16aa-
.	.	.	8gg
8G	8B	8g	8gg
=50	=50	=50	=50
[2GG	4c	8a-	4gg
.	.	8a	.
.	4d	8b-	4ff
.	.	8b	.
=51	=51	=51	=51
2GG]	4e-	16cc	16ee-
.	.	16b	16dd
.	.	16cc	16ee-
.	.	16dd	16ff
.	4r	8cc	8ee-
.	.	16ee-	8gg
.	.	16dd	.
=52	=52	=52	=52
2AA	4r	[2cc	8gg
.	.	.	8gg-
.	[4f	.	8ff
.	.	.	8ccc
=53	=53	=53	=53
4.BB-	16f]	8cc]	8ee-
.	16g	.	.
.	16f	16b-	8dd
.	16e-	16cc	.
.	8d	8dd	4bb-
16BB-	8f	16dd	.
16AA	.	16cc	.
=54	=54	=54	=54
4GG	4f	8b-	8bb-
.	.	8b-	16aa
.	.	.	16gg
4G	8e	8b-	8gg
.	8g	16a	16ff
.	.	16b-	16ee
=55	=55	=55	=55
16F	4f	4a	4.ff
16E	.	.	.
16F	.	.	.
16G	.	.	.
16F	4r	8r	.
16E-	.	.	.
16D	.	16d	16fff
16C	.	16e-	16eee-
=56	=56	=56	=56
[2BB-	4r	8f	8ddd
.	.	8f	16ddd
.	.	.	16ccc
.	4d	8f	16bb-
.	.	.	16aa
.	.	16e-	16gg
.	.	16f	16ff
=57	=57	=57	=57
2BB-_	4e-	8g	8ee-
.	.	8g	16ee-
.	.	.	16dd
.	4r	8g	16ee-
.	.	.	16dd
.	.	16a	16cc
.	.	16b-	16b-
=58	=58	=58	=58
2BB-_	16e-	8cc	4.a
.	16f	.	.
.	16e-	16cc	.
.	16d	16dd	.
.	8c	8ee-	.
.	16d	16dd	16b-
.	16c	16ee-	16cc
=59	=59	=59	=59
4BB-]	4B-	16ff	16dd
.	.	16ee-	16cc
.	.	16dd	16b-
.	.	16cc	16a
8r	8r	8b-	8b-
8F	8f	8a	8cc
=60	=60	=60	=60
4BB-	4f	4b-	16dd
.	.	.	16ee-
.	.	.	16ff
.	.	.	16dd
8r	8r	8r	8b-
8F	8f	8a	8cc
=61	=61	=61	=61
4BB-	4f	4b-	16dd
.	.	.	16ee-
.	.	.	16ff
.	.	.	16dd
8r	8r	8r	8b-
8AA	8c	8cc	8ff
=62	=62	=62	=62
4GG	4d	4b-	16bb-
.	.	.	16ccc
.	.	.	16ddd
.	.	.	16ccc
4r	4r	4r	16bb-
.	.	.	16aa
.	.	.	16gg
.	.	.	16ff
=63	=63	=63	=63
4C	4e-	4g	16ee-
.	.	.	16ff
.	.	.	16gg
.	.	.	16ff
4r	4r	4r	16ee-
.	.	.	16dd
.	.	.	16cc
.	.	.	16b-
=64	=64	=64	=64
8F	8c	8e-	16a
.	.	.	16b-
16c	16cc	16cc	16cc
16B-	16b-	16b-	16b-
16A	16a	16a	16a
16G	16g	16g	16g
16F	16f	16f	16f
16E-	16e-	16e-	16e-
=65	=65	=65	=65
16D	16d	16d	16d
16B-	16b-	16b-	16b-
16D	16d	16d	16d
16B-	16b-	16b-	16b-
16E-	16e-	16e-	16e-
16B-	16b-	16b-	16b-
16E-	16e-	16e-	16e-
16B-	16b-	16b-	16b-
=66	=66	=66	=66
16F	16f	16f	16f
16B-	16b-	16b-	16b-
16F	16f	16f	16f
16B-	16b-	16b-	16b-
16G	16g	16g	16g
16B-	16b-	16b-	16b-
16G	16g	16g	16g
16B-	16b-	16b-	16b-
=67	=67	=67	=67
16D	16d	16d	16d
16B-	16b-	16b-	16b-
16D	16d	16d	16d
16B-	16b-	16b-	16b-
16E-	16e-	16e-	16e-
16B-	16b-	16b-	16b-
16E-	16e-	16e-	16e-
16B-	16b-	16b-	16b-
=68	=68	=68	=68
16E	16e	16e	16e
16B-	16b-	16b-	16b-
16E	16e	16e	16e
16B-	16b-	16b-	16b-
16F	16f	16f	16f
16B-	16b-	16b-	16b-
16F	16f	16f	16f
16B-	16b-	16b-	16b-
=69	=69	=69	=69
16G-	16g-	16g-	16g-
16B-	16b-	16b-	16b-
16G-	16g-	16g-	16g-
16B-	16b-	16b-	16b-
16F	16f	16f	16f
16B-	16b-	16b-	16b-
16F	16f	16f	16f
16B-	16b-	16b-	16b-
=70	=70	=70	=70
4E	4e	4e	16e
.	.	.	16dd-
.	.	.	16cc
.	.	.	16b-
4r	4r	4r	16a
.	.	.	16b-
.	.	.	16a
.	.	.	16b-
=71	=71	=71	=71
2E	2d-	2g	16bb-
.	.	.	16dd-
.	.	.	16cc
.	.	.	16b-
.	.	.	16a
.	.	.	16b-
.	.	.	16a
.	.	.	16b-
=72	=72	=72	=72
2E-	2c	[2f	16a
.	.	.	16b-
.	.	.	16cc
.	.	.	16dd
.	.	.	16ee-
.	.	.	16ff
.	.	.	16gg
.	.	.	16aa
=73	=73	=73	=73
8D	8B-	8f]	16bb-
.	.	.	16aa
8r	8r	8r	16bb-
.	.	.	16ff
8E-	8E-	8B-	16gg
.	.	.	16ff#
8r	8r	16b-	16gg
.	.	16g	16ee-
=74	=74	=74	=74
8F	8F	8f	8dd
8r	8r	8d	8ff
8FF	8F	8e-	8a
8r	8r	8A	8cc
=75	=75	=75	=75
8r	8r	4B-	4b-
16BB-	16D	.	.
16C	16E-	.	.
8D	8F	8r	8r
8r	8r	16d	16b-
.	.	16e-	16cc
=76	=76	=76	=76
8r	8r	8f	8dd
16B-	16d	4r	4r
16c	16e-	.	.
8d	8f	.	.
8r	8r	16b-	16dd
.	.	16cc	16ee-
=77	=77	=77	=77
8r	8r	8dd	8ff
16B-	16d	4r	4r
16c	16e-	.	.
8d	8f	.	.
8r	8r	16dd	16ff
.	.	16ee-	16gg
=78	=78	=78	=78
8r	8r	8ff	8aa-
16B-	16d	4r	4r
16c	16e-	.	.
8d	8f	.	.
8r	8r	16ff	16aa-
.	.	16gg	16bb-
=79	=79	=79	=79
2r	2r	8aa-	8ccc
.	.	16aa-	16ccc
.	.	16gg	16bb-
.	.	8ff	8aa-
.	.	16ff	16aa-
.	.	16ee-	16gg
=80	=80	=80	=80
8r	8r	4dd	4ff
16f	16a-	.	.
16e-	16g	.	.
8d	8f	8r	8r
16d	16f	16dd	16ff
16c	16e-	16ee-	16gg
=81	=81	=81	=81
8B-	8d	8ff	8aa-
16B-	16d	16ff	16aa-
16c	16e-	16ee-	16gg
8d	8f	8dd	8ff
16d	16f	16dd	16ff
16e-	16g	16cc	16ee-
=82	=82	=82	=82
4f	4a-	4b-	4dd
4r	4r	4r	4r
=83	=83	=83	=83
2r	2r	2r	4.r
.	.	.	16g
.	.	.	16a-
=84	=84	=84	=84
8E-	8e-	8g	8b-
8E-	8e-	8g	8b-
8E-	8e-	8g	8b-
8r	8r	8r	16a-
.	.	.	16b-
=85	=85	=85	=85
8E-	8e-	8a-	8cc
8E-	8e-	8a-	8cc
8E-	8e-	8a-	8cc
8r	8r	8r	16dd
.	.	.	16ee-
=86	=86	=86	=86
8E-	8B-	8A- 8d	8ff
8r	8r	8r	16ff
.	.	.	16gg
8E-	8B-	8A- 8d	8aa-
8r	8r	16g	16gg
.	.	16f	16aa-
=87	=87	=87	=87
4E-	4G	4e-	16bb-
.	.	.	16aa-
.	.	.	16gg
.	.	.	16ff
8r	8r	8r	8ee-
8B-	8b-	8b-	8b-
=88	=88	=88	=88
8A	8a	8a	8a
8A-	8a-	8a-	8a-
8G	8g	8g	8g
8G-	8g-	8g-	8g-
=89	=89	=89	=89
16F	16f	16f	16f
16E-	16e-	16e-	16e-
16D	16d	16d	16d
16E-	16e-	16e-	16e-
8F	8f	8f	8f
8G	8g	8g	8g
=90	=90	=90	=90
8F	8f	8f	8f
8E-	8e-	8e-	8e-
8D	8d	8d	8d
8C	8c	8c	8c
=91	=91	=91	=91
16BB-	16B-	16B-	16B-
16AA	16A	16A	16A
16BB-	16B-	16B-	16B-
16C	16c	16c	16c
8BB-	8B-	8B-	8B-
8r	8r	8r	16g
.	.	.	16a-
=92	=92	=92	=92
[2E-	2G	2d-	8b-
.	.	.	8b-
.	.	.	8b-
.	.	.	16a-
.	.	.	16b-
=93	=93	=93	=93
2E-]	2A-	2c	8cc
.	.	.	8cc
.	.	.	8cc
.	.	.	16b-
.	.	.	16cc
=94	=94	=94	=94
2E	4.G	4.B-	8dd-
.	.	.	16b-
.	.	.	16cc
.	.	.	8dd-
.	8c	8g	8b-
=95	=95	=95	=95
2F	2c	16f	16a-
.	.	16e	16g
.	.	16f	16a-
.	.	16g	16b-
.	.	8f	8a-
.	.	16a-	16ff
.	.	16g	16gg
=96	=96	=96	=96
2D-	4.B	4.f	8aa-
.	.	.	16ff
.	.	.	16gg
.	.	.	8aa-
.	16a-	8f	8b
.	16f	.	.
=97	=97	=97	=97
4C	4g	8e	4cc
.	.	16c	.
.	.	16d	.
4r	4r	8e	8r
.	.	16e	16cc
.	.	16f	16dd
=98	=98	=98	=98
4C	4r	8g	8ee
.	.	8g	8ee
4B-	[4cc	8g	8ee
.	.	16f	16dd
.	.	16g	16ee
=99	=99	=99	=99
4A-	16cc]	4a-	4ff
.	16dd-	.	.
.	16cc	.	.
.	16b-	.	.
4r	16a-	8r	8r
.	16g	.	.
.	16f	16d	16b-
.	16e-	16e-	16cc
=100	=100	=100	=100
4BB-	4d	8f	8dd
.	.	8f	8dd
4A-	[4b-	8f	8dd
.	.	16e-	16cc
.	.	16f	16dd
=101	=101	=101	=101
16G	16b-]	4g	4ee-
16A-	16cc	.	.
16G	16b-	.	.
16F	16a-	.	.
8E-	16g	4r	4r
.	16f	.	.
8GG	16e-	.	.
.	16d	.	.
=102	=102	=102	=102
8AA-	16c	2r	2r
.	16e-	.	.
8AA	16f	.	.
.	16e-	.	.
8BB-	16d	.	.
.	16f	.	.
8BB	16g	.	.
.	16f	.	.
=103	=103	=103	=103
8C	16e-	2r	2r
.	16b-	.	.
8c	16a-	.	.
.	16g	.	.
8d	16f	.	.
.	16cc	.	.
8D	16b-	.	.
.	16a-	.	.
=104	=104	=104	=104
8E-	8g	4r	4ee-
16E-	16g	.	.
16F	16a-	.	.
8G	8b-	[4ee-	4ddd-
16F	16a-	.	.
16G	16b-	.	.
=105	=105	=105	=105
4A-	16cc	16ee-]	4ccc
.	16dd-	16ff	.
.	16cc	16ee-	.
.	16b-	16dd-	.
4r	16a-	16cc	4r
.	16b-	16dd-	.
.	16a-	16cc	.
.	16g	16b-	.
=106	=106	=106	=106
8r	8f	4a	4ff
16F	16a	.	.
16G	16b-	.	.
8A	8cc	[4ff	4eee-
16G	16b-	.	.
16A	16cc	.	.
=107	=107	=107	=107
4B-	16dd	16ff]	4ddd
.	16ee-	16gg	.
.	16dd	16ff	.
.	16cc	16ee-	.
4r	16b-	16dd	4r
.	16cc	16ee-	.
.	16b-	16dd	.
.	16a-	16cc	.
=108	=108	=108	=108
8r	4g	8b	4gg
16G	.	16B	.
16A	.	16c	.
8B	4r	8d	4fff
16A	.	16c	.
16B	.	16d	.
=109	=109	=109	=109
4c	8c	8e-	16eee-
.	.	.	16fff
.	8d	8f	16eee-
.	.	.	16ddd
4r	8e-	8g	8ccc
.	8e	8g	16ccc
.	.	.	16bb-
=110	=110	=110	=110
4.r	8f	8a-	16aa-
.	.	.	16bb-
.	8g	8b-	16aa-
.	.	.	16gg
.	8a-	8cc	8ff
16F	8r	16cc	16aa-
16G	.	16b-	16gg
=111	=111	=111	=111
2A-	2r	16a-	16ff
.	.	16b-	16gg
.	.	16a-	16ff
.	.	16g	16ee-
.	.	8f	16dd
.	.	.	16ee-
.	.	8f#	16dd
.	.	.	16cc
=112	=112	=112	=112
4G	4r	4g	16b
.	.	.	16cc
.	.	.	16dd
.	.	.	16cc
4r	16G	4r	16b
.	16F	.	16a-
.	16E-	.	16g
.	16D	.	16f
=113	=113	=113	=113
4C	4C	2r	16e-
.	.	.	16cc
.	.	.	16gg
.	.	.	16aa-
8c	4r	.	16gg
.	.	.	16ee-
16B	.	.	16dd
16c	.	.	16cc
=114	=114	=114	=114
4d	4G	2r	16b
.	.	.	16cc
.	.	.	16dd
.	.	.	16b
4r	8f	.	16g
.	.	.	16a-
.	16e-	.	16g
.	16d	.	16f
=115	=115	=115	=115
4C	4c	2r	16e-
.	.	.	16cc
.	.	.	16gg
.	.	.	16aa-
8c	4r	.	16gg
.	.	.	16ee-
16B	.	.	16dd
16c	.	.	16cc
=116	=116	=116	=116
4d	2r	4G	16b
.	.	.	16cc
.	.	.	16dd
.	.	.	16b
4r	.	8f	16g
.	.	.	16a-
.	.	16e-	16g
.	.	16d	16f
=117	=117	=117	=117
2C	2G	[2e-	16e-
.	.	.	16cc
.	.	.	16ee-
.	.	.	16cc
.	.	.	16ee-
.	.	.	16cc
.	.	.	16ee-
.	.	.	16cc
=118	=118	=118	=118
2GG	2d-	2e-]	16e-
.	.	.	16b-
.	.	.	16dd-
.	.	.	16b-
.	.	.	16dd-
.	.	.	16b-
.	.	.	16dd-
.	.	.	16b-
=119	=119	=119	=119
4AA-	8c	8A-	4cc
.	16A-	16c	.
.	16B-	16d-	.
4r	8c	8e-	[4a-
.	16c	16e-	.
.	16d-	16f	.
=120	=120	=120	=120
4E-	4e-	4B-	16a-]
.	.	.	16g
.	.	.	16b-
.	.	.	16a-
4d-	16b-	[4ee-	16g
.	16a-	.	16f
.	16g	.	16e-
.	16b-	.	16g
=121	=121	=121	=121
4c	8a-	16ee-]	4a-
.	.	16ff	.
.	8A-	16ee-	.
.	.	16dd	.
4r	8a-	16ee-	8r
.	.	16cc	.
.	16b-	16b-	16ddd-
.	16cc	16a-	16ccc
=122	=122	=122	=122
4E-	8dd-	4g	8bb-
.	16g	.	16bb-
.	16a-	.	16aa-
4d-	8b-	[4e-	8gg
.	8e-	.	16gg
.	.	.	16bb-
=123	=123	=123	=123
4c	8a-	16e-]	4aa-
.	.	16f	.
.	8A-	16e-	.
.	.	16d	.
16AA-	8a-	8e-	8r
16GG	.	.	.
16AA-	16e-	8e-	16ccc
16BB-	16c	.	16aa-
=124	=124	=124	=124
4C	8B-	4e	8gg
.	16b-	.	16gg
.	16a-	.	16ff
4B-	8g	[4cc	8ee
.	16g	.	16ee
.	16e	.	16gg
=125	=125	=125	=125
4A-	8f	16cc]	4ff
.	.	16dd-	.
.	8F	16cc	.
.	.	16b-	.
16FF	8a-	8cc	8r
16EE	.	.	.
16FF	8f	8cc	16aa-
16GG	.	.	16ff
=126	=126	=126	=126
4AA-	8e-	4c	8gg-
.	16e-	.	16gg-
.	16d-	.	16ff
4G-	8c	[4a-	8ee-
.	16c	.	16ee-
.	16e-	.	16cc
=127	=127	=127	=127
4F	8f	8a-]	8dd-
.	16f	16a-	4ff
.	16e-	16g-	.
8r	8d-	8f	.
16D-	8r	16f	[8aa-
16C	.	16e-	.
=128	=128	=128	=128
2BB-	8r	8d	8aa-]
.	16d	16f	4ff
.	16e-	16g	.
.	8f	8a-	.
.	8a-	8f	8dd
=129	=129	=129	=129
4EE-	8g	8g	8ee-
.	16g	16b-	4gg
.	16f	16a-	.
8r	8e-	8g	.
16E-	8r	16g	[8bb-
16D-	.	16f	.
=130	=130	=130	=130
2C	8r	8e	8bb-]
.	16e	16g	4gg
.	16f	16a-	.
.	8g	8b-	.
.	8b-	8g	8ee
=131	=131	=131	=131
4FF	16a-	16cc	8ff
.	16b-	16dd-	.
.	16a-	16cc	4gg
.	16g	16b-	.
4r	16f	16a-	.
.	16g	16b-	.
.	16f	16a-	[8aa-
.	16e-	16g	.
=132	=132	=132	=132
4BB-	16d	16f	8aa-]
.	16e-	16e-	.
.	16f	16d	4b-
.	16d	16f	.
4EE-	16e-	16g	.
.	16f	16a-	.
.	16g	16b-	[8gg
.	16e-	16g	.
=133	=133	=133	=133
4AA-	4A-	16cc	8gg]
.	.	16b	.
.	.	16cc	4ff
.	.	16b	.
4AA	4F	8cc	.
.	.	8cc	8ee-
=134	=134	=134	=134
8BB-	8F	4b-	4dd
16BB-	16D	.	.
16C	16E-	.	.
8D	8F	8r	8r
8r	8r	16d	16b-
.	.	16e-	16cc
=135	=135	=135	=135
8r	8r	8f	8dd
16B-	16d	4r	4r
16c	16e-	.	.
8d	8f	.	.
8r	8r	16b-	16dd
.	.	16cc	16ee-
=136	=136	=136	=136
8r	8r	8dd	8ff
16B-	16d	4r	4r
16c	16e-	.	.
8d	8f	.	.
8r	8r	16dd	16ff
.	.	16ee-	16gg
=137	=137	=137	=137
8r	8r	8ff	8aa-
16B-	16d	4r	4r
16c	16e-	.	.
8d	8f	.	.
8r	8r	16ff	16aa-
.	.	16gg	16bb-
=138	=138	=138	=138
2r	2r	8aa-	8ccc
.	.	16aa-	16ccc
.	.	16gg	16bb-
.	.	8ff	8aa-
.	.	16ff	16aa-
.	.	16ee-	16gg
=139	=139	=139	=139
8r	8r	4dd	4ff
16f	16a-	.	.
16e-	16g	.	.
8d	8f	8r	8r
16d	16f	16dd	16ff
16c	16e-	16ee-	16gg
=140	=140	=140	=140
8B-	8d	8ff	8aa-
16B-	16d	16ff	16aa-
16c	16e-	16ee-	16gg
8d	8f	8dd	8ff
16d	16f	16dd	16ff
16e-	16g	16cc	16ee-
=141	=141	=141	=141
4f	4a-	4b-	4dd
4r	4r	4r	4r
=142	=142	=142	=142
2r	2r	2r	4.r
.	.	.	16g
.	.	.	16a-
=143	=143	=143	=143
8E-	8e-	8g	8b-
8E-	8e-	8g	8b-
8E-	8e-	8g	8b-
8r	8r	8r	16a-
.	.	.	16b-
=144	=144	=144	=144
8E-	8e-	8a-	8cc
8E-	8e-	8a-	8cc
8E-	8e-	8a-	8cc
8r	8r	8r	16dd
.	.	.	16ee-
=145	=145	=145	=145
8E-	8B-	8d 8A-	8ff
8r	8r	8r	16ff
.	.	.	16gg
8E-	8B-	8A- 8d	8aa-
8r	8r	16g	16gg
.	.	16f	16aa-
=146	=146	=146	=146
4E-	8G	8e-	16bb-
.	.	.	16aa-
.	4r	4r	16gg
.	.	.	16ff
4r	.	.	8ee-
.	16e-	16g	8r
.	16f	16a-	.
=147	=147	=147	=147
8r	16g	16b-	8r
.	16f	16a-	.
8BB-	16e-	16g	8bb-
.	16d	16f	.
8E-	8e-	8g	8gg
8r	16c	16e-	8r
.	16d	16f	.
=148	=148	=148	=148
8r	16e-	16g	8r
.	16d	16f	.
8GG	16c	16e-	8gg
.	16B	16d	.
8C	8c	8e-	8ee-
8r	16A-	16c	8r
.	16B-	16d-	.
=149	=149	=149	=149
8r	16c	16e-	8r
.	16B-	16d-	.
8EE-	16A-	16c	8ee-
.	16G	16B-	.
8AA-	8A-	8c	8cc
16A-	16a-	16a-	16a-
16B-	16b-	16b-	16b-
=150	=150	=150	=150
16c	16cc	16cc	16cc
16B-	16b-	16b-	16b-
16A-	16a-	16a-	16a-
16G	16g	16g	16g
16F	16f	16f	16f
16E-	16e-	16e-	16e-
16D	16d	16d	16d
16C	16c	16c	16c
=151	=151	=151	=151
16BB-	16B-	16B-	16B-
16D	16d	16d	16d
16F	16f	16f	16f
16E-	16e-	16e-	16e-
16D	16d	16d	16d
16C	16c	16c	16c
16BB-	16B-	16B-	16B-
16AA-	16A-	16A-	16A-
=152	=152	=152	=152
16GG	16G	16G	16G
16E-	16e-	16e-	16e-
16GG	16G	16G	16G
16E-	16e-	16e-	16e-
16AA-	16A-	16A-	16A-
16E-	16e-	16e-	16e-
16AA-	16A-	16A-	16A-
16E-	16e-	16e-	16e-
=153	=153	=153	=153
16BB-	16B-	16B-	16B-
16E-	16e-	16e-	16e-
16BB-	16B-	16B-	16B-
16E-	16e-	16e-	16e-
16C	16c	16c	16c
16E-	16e-	16e-	16e-
16C	16c	16c	16c
16E-	16e-	16e-	16e-
=154	=154	=154	=154
16GG	16G	16G	16G
16E-	16e-	16e-	16e-
16GG	16G	16G	16G
16E-	16e-	16e-	16e-
16AA-	16A-	16A-	16A-
16E-	16e-	16e-	16e-
16AA-	16A-	16A-	16A-
16E-	16e-	16e-	16e-
=155	=155	=155	=155
16AA	16A	16A	16A
16E-	16e-	16e-	16e-
16AA	16A	16A	16A
16E-	16e-	16e-	16e-
16BB-	16B-	16B-	16B-
16E-	16e-	16e-	16e-
16BB-	16B-	16B-	16B-
16E-	16e-	16e-	16e-
=156	=156	=156	=156
16C-	16c-	16c-	16c-
16E-	16e-	16e-	16e-
16C-	16c-	16c-	16c-
16E-	16e-	16e-	16e-
16C-	16c-	16c-	16c-
16E-	16e-	16e-	16e-
16C-	16c-	16c-	16c-
16E-	16e-	16e-	16e-
=157	=157	=157	=157
8C-	8c-	8c-	8c-
8C-	8g-	8e-	16e-
.	.	.	16g-
8C-	8g-	8e-	8cc-
8C-	8g-	8e-	8cc-
=158	=158	=158	=158
8C-	8g-	8e-	8cc-
16C-	16g-	16e-	16g-
16C-	16g-	16g-	16cc-
8C-	8g-	8cc-	8ee-
8C-	8g-	8cc-	8ee-
=159	=159	=159	=159
8C-	8g-	8cc-	8ee-
16C-	16g-	16g-	16cc-
16C-	16g-	16cc-	16ee-
8C-	8g-	8ee-	8gg-
8C-	8g-	8ee-	8gg-
=160	=160	=160	=160
8C-	8g-	8ee-	8gg-
16C-	16g-	16cc-	16ee-
16C-	16g-	16ee-	16gg-
8C-	8e-	8gg-	8ccc-
8C-	8e-	8gg-	8ccc-
=161	=161	=161	=161
4C-	4g-	4ee-	4ccc-
4r	4r	4r	4r
=162	=162	=162	=162
2r	2r	2r	4.r
.	.	.	16ee-
.	.	.	16ff
=163	=163	=163	=163
8A	8e-	8cc	8gg-
8A	8e-	8cc	8gg-
8A	8e-	8cc	8gg-
8r	8r	8r	8r
=164	=164	=164	=164
2r	2r	2r	4.r
.	.	.	16dd
.	.	.	16ee-
=165	=165	=165	=165
8A-	8d	8b	8ff
8A-	8d	8b	8ff
8A-	8d	8b	8ff
8r	8r	8r	8r
=166	=166	=166	=166
4.r	4.r	4.r	4.r
16G	16B-	16b-	16gg
16F	16A-	16cc	16aa-
=167	=167	=167	=167
8E	8G	8dd-	8bb-
8E	8G	8dd-	8bb-
8E	8G	8dd-	8bb-
16F	16A-	16cc	16aa-
16G	16B-	16b-	16gg
=168	=168	=168	=168
8A-	8c	8a-	8ff
8A-	8c	8a-	8ff
8A-	8c	8a-	8ff
16F	16A-	16a-	16ff
16E-	16G	16b-	16gg
=169	=169	=169	=169
8D	8F	8cc	8aa-
8D	8F	8cc	8aa-
8D	8F	8cc	8aa-
16E-	16G	16b-	16gg
16F	16A-	16a-	16ff
=170	=170	=170	=170
8G	8B-	8g	8ee-
8G	8B-	8g	8ee-
8G	8B-	8g	8ee-
8r	8d	8a-	8cc
=171	=171	=171	=171
2r	8e-	8g	8b-
.	8d	8a-	8cc
.	8e-	8g	8b-
.	8d	8a-	8cc
=172	=172	=172	=172
8r	4e-	8g	8b-
8E-	.	8g	16ee-
.	.	.	16b-
8B-	4r	8f	8a-
8B-	.	16e-	16g
.	.	16f	16a-
=173	=173	=173	=173
4E-	8r	8e-	8g
.	8d	8a-	8cc
4r	8e-	8g	8b-
.	8d	8a-	8cc
=174	=174	=174	=174
8r	4e-	8g	8b-
8E-	.	8g	16ee-
.	.	.	16b-
8B-	4r	8f	8a-
8BB-	.	16e-	16g
.	.	16d	16f
=175	=175	=175	=175
4C	2r	4e-	4e-
4r	.	4r	32a-
.	.	.	32b-
.	.	.	8.cc
=176	=176	=176	=176
2r	2r	2r	2r
=177	=177	=177	=177
4D	4f	4a- 4B-	4B-
4r	4r	4r	32ff
.	.	.	32gg
.	.	.	8.aa-
=178	=178	=178	=178
2r	2r	2r	2r
=179	=179	=179	=179
4r	4r	4r	4r
8EE-	8E-	8G	8g
16r	16r	16r	16r
16FF	16F	16A-	16a-
=180	=180	=180	=180
8GG	8G	8B-	8b-
8r	8r	8r	8r
8GG	8G	8B-	8b-
8r	8r	8r	8r
=181	=181	=181	=181
8GG	8G	8B-	8b-
8r	8r	8r	8r
8FF	8F	8A-	8a-
16r	16r	16r	16r
16GG	16G	16B-	16b-
=182	=182	=182	=182
8AA-	8A-	8c	8cc
8r	8r	8r	8r
8AA-	8A-	8c	8cc
8r	8r	8r	8r
=183	=183	=183	=183
8AA-	8A-	8c	8cc
4.r	4.r	4.r	4r
.	.	.	16g
.	.	.	16a-
=184	=184	=184	=184
8E-	8e-	8g	8b-
8E-	8e-	8g	8b-
8E-	8e-	8g	8b-
8r	8r	8r	16a-
.	.	.	16b-
=185	=185	=185	=185
8E-	8e-	8a-	8cc
8E-	8e-	8a-	8cc
8E-	8e-	8a-	8cc
8r	8r	8r	16dd
.	.	.	16ee-
=186	=186	=186	=186
8E-	8B-	8d 8A-	8ff
8r	8r	8r	16ff
.	.	.	16gg
8E-	8B-	8A- 8d	8aa-
8r	8r	16g	16gg
.	.	16f	16aa-
=187	=187	=187	=187
8E-	8G	8e-	16bb-
.	.	.	16aa-
4r	4r	4r	16gg
.	.	.	16ff
.	.	.	8ee-
8BB-	8f	8a-	16dd
.	.	.	16ccc
=188	=188	=188	=188
4E-	8g	8g	16bb-
.	.	.	16aa-
.	4r	4r	16gg
.	.	.	16ff
8r	.	.	8ee-
8BB-	8f	8a-	16dd
.	.	.	16ccc
=189	=189	=189	=189
8E-	8g	8g	16bb-
.	.	.	16aa-
4r	4r	4r	16gg
.	.	.	16ff
.	.	.	8ee-
16D	16d	16d	16d
16c	16cc	16cc	16cc
=190	=190	=190	=190
16B-	16b-	16b-	16b-
16A-	16a-	16a-	16a-
16G	16g	16g	16g
16F	16f	16f	16f
16E-	16e-	16e-	16e-
16D	16d	16d	16d
16C	16c	16c	16c
16BB-	16B-	16B-	16B-
=191	=191	=191	=191
8AA-	8A-	8A-	8A-
8r	8r	8r	8r
8BB-	8B-	8dd 8f	8f 8dd 8A-
8r	8r	8r	8r
=192	=192	=192	=192
8E-	8e-	8ee- 8e-	8ee- 8e- 8G
8r	8r	8r	8r
8BB-	8B-	8a- 8B-	8ff 8b- 8d
8r	8r	8r	8r
=193	=193	=193	=193
4EE-	4E-	4g 4B-	8gg 8e- 8b-
.	.	.	4.r
4r	4r	4r	.
==	==	==	==
*-	*-	*-	*-
!!!RWG1: This file contains only pitch and duration data.
!!!RWG2: Transposing instruments are not transposed.
!!!RWG3: Spines may have incompatible meters.
!!!RWG4: Durations of rests and tied notes may be interpreted.
!!!RWG: Key is interpreted using the Humdrum key tool.
!!!GTL: 6 Quartetti ("Tost III")
!!!AFT: stage1
!!!END: 1997/04/15
!!!KEY: 3746124482
!!!EMD: Converted from MuseData to Humdrum Dec 16, 2000, by Andreas Kornstaedt using muse2kern.
!!!EMD: Manual editing by Craig Sapp, Nov 2001
